Sources/FrostedUI/Resources/Icons.xcassets/stickerFilled32.imageset/sticker-filled-32.svg

<svg width="32" height="32" viewBox="0 0 32 32" fill="none" xmlns="http://www.w3.org/2000/svg" data-fui-icon="true">
  <g clip-path="url(#clip0_6194_397)">
    <path
      d="M19.0796 0.567082C23.7613 -0.51378 28.433 2.40545 29.5139 7.08717L30.3072 10.5233C30.4033 10.9394 30.1438 11.3547 29.7276 11.4507L21.4844 13.3538C17.8431 14.1945 15.5728 17.8279 16.4134 21.4692L18.3165 29.7124C18.4126 30.1286 18.1531 30.5438 17.7369 30.6399L14.3008 31.4332C9.61911 32.514 4.94737 29.5948 3.86651 24.9131L1.25717 13.6108C0.176305 8.92903 3.09553 4.25729 7.77726 3.17643L19.0796 0.567082ZM30.3658 12.8429C30.5921 12.7906 30.8148 12.9489 30.8106 13.1812C30.6824 20.2671 26.6591 26.7057 20.3465 29.9272C20.1397 30.0327 19.8995 29.9012 19.8473 29.6749L17.8749 21.1317C17.2207 18.2976 18.9877 15.4697 21.8218 14.8154L30.3658 12.8429Z"
      fill="currentColor"
    />
  </g>
  <defs>
    <clipPath id="clip0_6194_397"><path fill="currentColor" d="M0 0H32V32H0z" /></clipPath>
  </defs>
</svg>

<svg xmlns="http://www.w3.org/2000/svg" width="32" height="32" fill="none" data-fui-icon="true" viewBox="0 0 32 32"><g clip-path="url(#a)"><path fill="currentColor" d="M19.08.567a8.7 8.7 0 0 1 10.434 6.52l.793 3.436a.773.773 0 0 1-.58.928l-8.243 1.903a6.767 6.767 0 0 0-5.07 8.115l1.902 8.243a.773.773 0 0 1-.58.928l-3.435.793a8.7 8.7 0 0 1-10.434-6.52l-2.61-11.302a8.7 8.7 0 0 1 6.52-10.435zm11.286 12.276c.226-.052.449.106.445.338a19.19 19.19 0 0 1-10.465 16.746c-.206.106-.447-.026-.499-.252l-1.972-8.543a5.267 5.267 0 0 1 3.947-6.317z"/></g><defs><clipPath id="a"><path fill="currentColor" d="M0 0h32v32H0z"/></clipPath></defs></svg>
